X: 101
T: Miss Gordon of Braid's Reel
C: attr. John French (1753-1803)
R: reel
B: "John French Collection", John French ed. p.10 #`
S: http://www.heallan.com/french.asp
Z: 2012 John Chambers <jc:trillian.mit.edu>
M: C
L: 1/8
K: A
f |\
eA {d}cA ceaf | gedg BG-Gf | eA {d}cA ceaf | gdBe {d}cA-A :|
E |\
DEA,E CEAF | GEDG | B,G,-G,B, | CEA,E CEAF | GB,A,E CA,-A,E |
DEA,E CEAF | GEDG | B,G,-G,B, | CEA,E CEAc | BgdB {d}cAA |]

%%sep 2 1 500
%%sep 1 1 500

